X:310
T:Pat Smokes
C:Martin Hanley
L:1/8
M:C
O:Australia 
R:Reel
Z:Peter Dwyer 
%%Copyright:Martin Hanley
%%TUNEURL: http://www.leeds.ac.uk/music/Info/RRTuneBk/gettune/00000637.html
%%ID:00000637
K:G
|:EAAG A2 AG| BAGB AGED| EDEF GFGA| BAGB AGED|
EAAG A2 AG| BAGB AGED| EDEF GFGA| BAGB A4:|
|: eA (3AAA eA (3AAA| GAEA DAEA| eA (3AAA eA (3AAA| (3efg fa gede|
eA (3AAA eA (3AAA| GAEA DAEA| (3efg fa gefd| cABG A4:|
|:ea ~a ba ~a| c'aba aged| eg ~g ag ~g| agbg ageg|
(3efg fd (3efe ed| cABG AGED| EDEF GFGB| AGAB A4:|
